graphics/logo.svg

<?xml version="1.0" encoding="UTF-8" standalone="no"?>
<svg
   height="480"
   width="480"
   viewBox="0 0 480 480"
   version="1.1"
   id="svg31"
   sodipodi:docname="logo.svg"
   inkscape:version="1.2.2 (b0a8486541, 2022-12-01)"
   xmlns:inkscape="http://www.inkscape.org/namespaces/inkscape"
   xmlns:sodipodi="http://sodipodi.sourceforge.net/DTD/sodipodi-0.dtd"
   xmlns:xlink="http://www.w3.org/1999/xlink"
   xmlns="http://www.w3.org/2000/svg"
   xmlns:svg="http://www.w3.org/2000/svg">
  <sodipodi:namedview
     id="namedview33"
     pagecolor="#ffffff"
     bordercolor="#000000"
     borderopacity="0.25"
     inkscape:showpageshadow="2"
     inkscape:pageopacity="0.0"
     inkscape:pagecheckerboard="0"
     inkscape:deskcolor="#d1d1d1"
     showgrid="false"
     inkscape:zoom="1"
     inkscape:cx="-152.5"
     inkscape:cy="299.5"
     inkscape:window-width="2353"
     inkscape:window-height="1360"
     inkscape:window-x="-7"
     inkscape:window-y="1200"
     inkscape:window-maximized="0"
     inkscape:current-layer="svg31" />
  <defs
     id="defs13">
    <g
       id="king"
       transform="scale(0.15)">
      <path
         id="king__fill"
         d="m 397,1770 66,-244 -33,-187 q -1,0 -3,-4 v 0 q -5,-7 -28.5,-18.5 Q 375,1305 344,1277 v 0 q -44,-37 -68.5,-60 -24.5,-23 -44.5,-50 v 0 q -61,-84 -68,-203 v 0 Q 153,849 256,735 v 0 Q 360,621 537,628 v 0 q 66,4 155,32 v 0 q 29,12 59.5,23.5 Q 782,695 812,707 v 0 q 16,8 28,16 v 0 q -5,-21 -5,-42 v 0 q 0,-78 55.5,-133 55.5,-55 133.5,-56 v 0 q 78,0 133,55.5 55,55.5 55,132.5 v 0 q 0,16 -4,42 v 0 q 14,-9 27,-15 v 0 q 46,-20 121,-47 v 0 q 86,-29 155,-33 v 0 q 177,-8 280,107 v 0 q 101,114 94,229 v 0 q -8,119 -69,203 v 0 q -20,27 -45,50.5 -25,23.5 -67,59.5 v 0 q -33,28 -56,39.5 -23,11.5 -27,18.5 v 0 q -1,2 -2,3 -1,1 -1,2 v 0 l -32,188 66,247 q -50,45 -224,74 -174,29 -402,29 v 0 Q 794,1877 618,1846.5 442,1816 397,1770 Z m 663,-1411 -1,130 H 988 V 358 h -83 q -34,0 -34,-33 v 0 -1 q 0,-33 34,-33 v 0 h 83 v -85 q 0,-35 36,-35 v 0 0 q 35,0 35,35 v 0 85 h 86 q 33,0 33,33 v 0 1 q 0,33 -33,33 v 0 z" />
      <path
         id="king__white-parts"
         d="m 1502,1535 16,-101 q -184,-51 -490,-51 v 0 q -308,0 -496,52 v 0 l 15,101 q 189,-49 481,-49 v 0 q 291,0 474,48 z m 42,198 v 0 l -30,-118 q -195,-45 -490,-45 v 0 q -292,0 -488,45 v 0 l -32,119 q 190,-58 521,-58 v 0 q 159,0 295,16 136,16 224,41 z m -411,-550 v 0 q 0,-29 6.5,-82.5 6.5,-53.5 20.5,-83.5 v 0 q 37,-81 106,-150 v 0 q 20,-20 86,-54 v 0 q 65,-32 139,-32 v 0 q 56,0 111.5,19.5 55.5,19.5 83.5,59.5 v 0 q 25,34 25,110 v 0 q 0,60 -49,112 v 0 q -32,33 -69,66.5 -37,33.5 -71,78.5 v 0 q -58,-20 -161.5,-31 -103.5,-11 -227.5,-13 z m -73,78 v 0 q 172,3 282,17 110,14 198,33 v 0 q 55,-54 122,-103 67,-49 94,-84 v 0 q 48,-65 48,-162 v 0 q 0,-89 -43,-149 v 0 Q 1684,700 1526,700 v 0 q -92,0 -192,40 v 0 q -91,36 -132,78 v 0 q -85,82 -124,216 v 0 q -15,46 -16.5,117 -1.5,71 -1.5,110 z m -72,-1 v 0 q 0,-40 -2,-110.5 -2,-70.5 -15,-117.5 v 0 Q 930,898 847,816 v 0 Q 804,774 715,738 v 0 Q 613,698 522,698 v 0 q -158,0 -234,113 v 0 q -43,60 -43,150 v 0 q 0,98 48,161 v 0 q 25,36 96,89 71,53 120,98 v 0 q 87,-19 196.5,-33 109.5,-14 282.5,-16 z m 36,-251 v 0 q 7,-28 12,-39 v 0 q 10,-39 23,-66 v 0 q 6,-17 17.5,-39.5 Q 1088,842 1101,813 v 0 q 8,-17 17,-41.5 9,-24.5 18,-48.5 v 0 q 8,-20 8,-43 v 0 q 0,-49 -35,-83.5 -35,-34.5 -85,-34.5 v 0 q -119,0 -119,119 v 0 q 0,23 8,43 v 0 q 22,65 34,90 v 0 q 13,29 24,51.5 11,22.5 19,39.5 v 0 q 13,33 22,66 v 0 q 2,6 12,38 z m -112,174 v 0 q -125,2 -228.5,13 -103.5,11 -160.5,31 v 0 Q 493,1190 453.5,1152.5 414,1115 384,1082 v 0 q -50,-51 -50,-112 v 0 q 0,-75 25,-110 v 0 Q 386,820 442,800.5 498,781 555,781 v 0 q 72,0 138,32 v 0 q 65,34 86,54 v 0 q 68,69 106,150 v 0 q 13,30 19.5,83.5 6.5,53.5 7.5,82.5 z m 112,-345 v 0 q -2,-10 -5,-17 v 0 q -6,-20 -10,-29 v 0 q -3,-7 -8,-17.5 Q 996,764 991,752 v 0 q -3,-7 -7.5,-18.5 Q 979,722 976,712 v 0 q -3,-9 -3,-19 v 0 q 0,-53 51,-53 v 0 q 53,0 53,52 v 0 q 0,13 -4,19 v 0 q -14,38 -15,41 v 0 q -15,30 -19,39 v 0 q -7,16 -9,29 v 0 q -3,6 -4,10.5 -1,4.5 -2,7.5 z"
         fill="#f9f9fa" />
    </g>
    <clipPath
       id="circle-7">
      <circle
         r="240"
         cy="272"
         cx="256"
         id="circle5-9" />
    </clipPath>
    <clipPath
       clipPathUnits="userSpaceOnUse"
       id="clipPath42418">
      <circle
         style="fill:#363959;fill-opacity:1;stroke-width:2.53293"
         id="circle42420"
         inkscape:label="background"
         r="240"
         cy="218.62712"
         cx="303.89789"
         transform="rotate(8.269331)" />
    </clipPath>
    <clipPath
       clipPathUnits="userSpaceOnUse"
       id="clipPath42422">
      <circle
         style="fill:#363959;fill-opacity:1;stroke-width:2.53293"
         id="circle42424"
         inkscape:label="background"
         r="240"
         cy="346.3717"
         cx="203.39789"
         transform="rotate(8.269331)" />
    </clipPath>
    <clipPath
       clipPathUnits="userSpaceOnUse"
       id="clipPath42426">
      <circle
         style="fill:#363959;fill-opacity:1;stroke-width:2.53293"
         id="circle42428"
         inkscape:label="background"
         r="240"
         cy="397.3717"
         cx="397.54877"
         transform="rotate(8.269331)" />
    </clipPath>
  </defs>
  <circle
     style="display:inline;fill:#363959;fill-opacity:1;stroke-width:2.53293"
     id="path38374"
     cx="397.54877"
     cy="397.3717"
     r="240"
     inkscape:label="background"
     transform="translate(-157.54877,-157.3717)" />
  <g
     id="g34551"
     inkscape:label="green-trail"
     transform="rotate(-8.269331,-1167.2635,1011.028)"
     style="display:inline;fill:#39b030;fill-opacity:1"
     clip-path="url(#clipPath42426)">
    <rect
       style="display:inline;fill:#39b030;fill-opacity:1"
       id="rect34545"
       width="33.852295"
       height="278.44101"
       x="32.713959"
       y="450.40836"
       transform="rotate(-15)" />
    <rect
       style="display:inline;fill:#39b030;fill-opacity:1;stroke-width:2.82628"
       id="rect34547"
       width="218.627"
       height="245.121"
       x="407.53415"
       y="-289.54993"
       transform="rotate(75.000001)"
       ry="0" />
    <rect
       style="display:inline;fill:#39b030;fill-opacity:1"
       id="rect34549"
       width="33.852295"
       height="70.341003"
       x="44.402126"
       y="344.99969"
       transform="rotate(-15)" />
  </g>
  <use
     id="green-king"
     href="#king"
     xlink:href="#king"
     x="198"
     y="-1"
     fill="#14b184"
     style="display:inline;fill:#57cf4f;fill-opacity:1"
     transform="translate(-207.13526,-21)" />
  <g
     id="g28005"
     inkscape:label="red-trail"
     transform="rotate(-8.269331,-717.43757,-306.35078)"
     style="display:inline;fill:#e01e00;fill-opacity:1"
     clip-path="url(#clipPath42422)">
    <rect
       style="display:inline;fill:#e01e00;fill-opacity:1"
       id="rect27999"
       width="33.852295"
       height="175.541"
       x="32.713959"
       y="450.40836"
       transform="rotate(-15)" />
    <rect
       style="display:inline;fill:#e01e00;fill-opacity:1;stroke-width:2.82628"
       id="rect28001"
       width="218.627"
       height="245.121"
       x="407.53415"
       y="-289.54993"
       transform="rotate(75.000001)"
       ry="0" />
    <rect
       style="display:inline;fill:#e01e00;fill-opacity:1"
       id="rect28003"
       width="33.852295"
       height="70.341003"
       x="44.402126"
       y="344.99969"
       transform="rotate(-15)" />
  </g>
  <use
     id="red-king"
     href="#king"
     xlink:href="#king"
     x="4"
     y="61"
     fill="#ff0059"
     style="display:inline;fill:#ff3d19;fill-opacity:1"
     transform="translate(180.86474,-32)" />
  <g
     id="g20643"
     inkscape:label="blue-trail"
     transform="rotate(-8.269331,115.88038,452.6475)"
     style="display:inline;fill:#1c99ff;fill-opacity:1"
     clip-path="url(#clipPath42418)">
    <rect
       style="display:inline;fill:#1c99ff;fill-opacity:1"
       id="rect17724"
       width="33.852295"
       height="175.541"
       x="32.713959"
       y="450.40836"
       transform="rotate(-15)" />
    <rect
       style="display:inline;fill:#1c99ff;fill-opacity:1;stroke-width:2.82628"
       id="rect9681"
       width="218.627"
       height="245.121"
       x="407.53415"
       y="-289.54993"
       transform="rotate(75.000001)"
       ry="0" />
    <rect
       style="display:inline;fill:#1c99ff;fill-opacity:1"
       id="rect22878"
       width="33.852295"
       height="70.341003"
       x="44.402126"
       y="344.99969"
       transform="rotate(-15)" />
  </g>
  <use
     id="blue-king"
     href="#king"
     xlink:href="#king"
     x="100"
     y="189"
     fill="#47baff"
     style="display:inline;fill:#5cb6ff;fill-opacity:1;stroke:none;stroke-opacity:1;stroke-width:5;stroke-dasharray:none;stroke-linejoin:miter;paint-order:normal"
     transform="translate(-15.479257,-32.255489)" />
</svg>

<?xml version="1.0" encoding="UTF-8" standalone="no" ?>
<svg
    height="512"
    width="512"
    viewBox="0 0 512 512"
    xmlns="http://www.w3.org/2000/svg"
    xmlns:xlink="http://www.w3.org/1999/xlink"
>
    <defs>
        <g id="king" transform="scale(0.15)">
            <path
                id="king__fill"
                d="
                    M397 1770L463 1526 430 1339Q429 1339 427 1335L427 1335Q422 1328 398.5 1316.5 375 1305 344 1277L344 1277Q300 1240 275.5 1217 251 1194 231 1167L231 1167Q170 1083 163 964L163 964Q153 849 256 735L256 735Q360 621 537 628L537 628Q603 632 692 660L692 660Q721 672 751.5 683.5 782 695 812 707L812 707Q828 715 840 723L840 723Q835 702 835 681L835 681Q835 603 890.5 548 946 493 1024 492L1024 492Q1102 492 1157 547.5 1212 603 1212 680L1212 680Q1212 696 1208 722L1208 722Q1222 713 1235 707L1235 707Q1281 687 1356 660L1356 660Q1442 631 1511 627L1511 627Q1688 619 1791 734L1791 734Q1892 848 1885 963L1885 963Q1877 1082 1816 1166L1816 1166Q1796 1193 1771 1216.5 1746 1240 1704 1276L1704 1276Q1671 1304 1648 1315.5 1625 1327 1621 1334L1621 1334Q1620 1336 1619 1337 1618 1338 1618 1339L1618 1339 1586 1527 1652 1774Q1602 1819 1428 1848 1254 1877 1026 1877L1026 1877Q794 1877 618 1846.5 442 1816 397 1770L397 1770Z
                    M1060 359L1059 489 988 489 988 358 905 358Q871 358 871 325L871 325 871 324Q871 291 905 291L905 291 988 291 988 206Q988 171 1024 171L1024 171 1024 171Q1059 171 1059 206L1059 206 1059 291 1145 291Q1178 291 1178 324L1178 324 1178 325Q1178 358 1145 358L1145 358 1060 359Z
                "
            />
            <path
                id="king__white-parts"
                d="
                    M1502 1535L1518 1434Q1334 1383 1028 1383L1028 1383Q720 1383 532 1435L532 1435 547 1536Q736 1487 1028 1487L1028 1487Q1319 1487 1502 1535L1502 1535Z
                    M1544 1733L1544 1733 1514 1615Q1319 1570 1024 1570L1024 1570Q732 1570 536 1615L536 1615 504 1734Q694 1676 1025 1676L1025 1676Q1184 1676 1320 1692 1456 1708 1544 1733Z
                    M1133 1183L1133 1183Q1133 1154 1139.5 1100.5 1146 1047 1160 1017L1160 1017Q1197 936 1266 867L1266 867Q1286 847 1352 813L1352 813Q1417 781 1491 781L1491 781Q1547 781 1602.5 800.5 1658 820 1686 860L1686 860Q1711 894 1711 970L1711 970Q1711 1030 1662 1082L1662 1082Q1630 1115 1593 1148.5 1556 1182 1522 1227L1522 1227Q1464 1207 1360.5 1196 1257 1185 1133 1183Z
                    M1060 1261L1060 1261Q1232 1264 1342 1278 1452 1292 1540 1311L1540 1311Q1595 1257 1662 1208 1729 1159 1756 1124L1756 1124Q1804 1059 1804 962L1804 962Q1804 873 1761 813L1761 813Q1684 700 1526 700L1526 700Q1434 700 1334 740L1334 740Q1243 776 1202 818L1202 818Q1117 900 1078 1034L1078 1034Q1063 1080 1061.5 1151 1060 1222 1060 1261Z
                    M988 1260L988 1260Q988 1220 986 1149.5 984 1079 971 1032L971 1032Q930 898 847 816L847 816Q804 774 715 738L715 738Q613 698 522 698L522 698Q364 698 288 811L288 811Q245 871 245 961L245 961Q245 1059 293 1122L293 1122Q318 1158 389 1211 460 1264 509 1309L509 1309Q596 1290 705.5 1276 815 1262 988 1260Z
                    M1024 1009L1024 1009Q1031 981 1036 970L1036 970Q1046 931 1059 904L1059 904Q1065 887 1076.5 864.5 1088 842 1101 813L1101 813Q1109 796 1118 771.5 1127 747 1136 723L1136 723Q1144 703 1144 680L1144 680Q1144 631 1109 596.5 1074 562 1024 562L1024 562Q905 562 905 681L905 681Q905 704 913 724L913 724Q935 789 947 814L947 814Q960 843 971 865.5 982 888 990 905L990 905Q1003 938 1012 971L1012 971Q1014 977 1024 1009Z
                    M912 1183L912 1183Q787 1185 683.5 1196 580 1207 523 1227L523 1227Q493 1190 453.5 1152.5 414 1115 384 1082L384 1082Q334 1031 334 970L334 970Q334 895 359 860L359 860Q386 820 442 800.5 498 781 555 781L555 781Q627 781 693 813L693 813Q758 847 779 867L779 867Q847 936 885 1017L885 1017Q898 1047 904.5 1100.5 911 1154 912 1183Z
                    M1024 838L1024 838Q1022 828 1019 821L1019 821Q1013 801 1009 792L1009 792Q1006 785 1001 774.5 996 764 991 752L991 752Q988 745 983.5 733.5 979 722 976 712L976 712Q973 703 973 693L973 693Q973 640 1024 640L1024 640Q1077 640 1077 692L1077 692Q1077 705 1073 711L1073 711Q1059 749 1058 752L1058 752Q1043 782 1039 791L1039 791Q1032 807 1030 820L1030 820Q1027 826 1026 830.5 1025 835 1024 838Z
                    
                "
                fill="#f9f9fa"
            />
        </g>
        <clipPath id="circle">
            <circle r="240" cy="272" cx="256"/>
        </clipPath>
        <clipPath id="tail-clip">
            <rect
                id="tail-clip__back-tail"
                x="240"
                y="16"
                width="200"
                height="512"
                transform="rotate(18)"
            />
            <rect
                id="tail-clip__front-tail"
                x="292"
                y="78"
                width="200"
                height="512"
                transform="rotate(18)"
            />
            <rect
                id="tail-clip__top-tail"
                x="361"
                y="-37"
                width="128"
                height="128"
                transform="rotate(18)"
            />
        </clipPath>
        <rect
            id="tail"
            width="512"
            height="512"
            x="0"
            y="0"
            clip-path="url(#tail-clip)"
        />
    </defs>
    <rect
        id="background"
        x="0"
        y="0"
        width="100%"
        height="100%"
        fill="#363959"
        clip-path="url(#circle)"
    />
    <g id="green-tail" fill="#0d7758">
        <g clip-path="url(#circle)">
            <use href="#tail" xlink:href="#tail" x="1.5" y="38"/>
        </g>
        <rect
            id="green-tail__outside"
            x="375.5"
            y="4"
            width="128"
            height="128"
            transform="rotate(18)"
            stroke-width="0"
        />
    </g>
    <use
        id="green-king"
        href="#king"
        xlink:href="#king"
        x="198"
        y="-1"
        fill="#14b184"
    />
    <g id="red-tail" fill="#c00043" clip-path="url(#circle)">
        <use href="#tail" xlink:href="#tail" x="-192.5" y="100" />
    </g>
    <use
        id="red-king"
        href="#king"
        xlink:href="#king"
        x="4"
        y="61"
        fill="#ff0059"
    />
    <g id="blue-tail" fill="#07a2ff" clip-path="url(#circle)">
        <use href="#tail" xlink:href="#tail" x="-96" y="228"/>
    </g>
    <use
        id="blue-king"
        href="#king"
        xlink:href="#king"
        x="100"
        y="189"
        fill="#47baff"
    />
</svg>
